T: Hare In The Corn, The
M: 12/8
L: 1/8
K: Gmaj
A | B2B A2G BdB AGA | B2e d2B A3 AGA |
B3 AGA BdB AGA | B2e d2B G3 G2 :|
|: d | e2e edB def g3 | {B}BAB d2B A3 ABd |
e3 edB e2f g3 | {B}BAB d2B G3 G2 :|
"Variation of First Bar Second Time Through" DBB DBB DBB AGA ||
